static/assets/images/exchanges/bullish.svg

<svg width="497" height="256" viewBox="0 0 497 256" fill="none" xmlns="http://www.w3.org/2000/svg">
<path d="M226.472 80.7612C194.292 54.8329 160.267 42.7866 117.043 36.7427C78.1948 31.3189 54.7256 23.5636 20.6676 0L0.09375 30.5831C30.6029 53.2372 59.1845 64.4733 97.9083 71.1621C125.307 75.8996 146.733 76.2303 175.24 91.3359C169.631 98.6034 164.519 109.302 161.417 116.57C147.188 108.153 126.209 101.704 98.1978 101.423V137.843C111.814 138.413 124.041 140.084 140.52 147.227C160.598 155.925 174.578 168.955 174.578 168.955C190.61 112.733 226.472 80.7612 226.472 80.7612ZM316.394 128.409C286.952 150.253 268.596 183.036 263.649 219.373H233.429C249.991 87.2102 371.638 75.3291 394.744 72.0633C436.454 66.1848 466.351 53.2786 496.81 30.6244L476.245 0.0330717C442.178 23.5967 418.709 31.3603 379.87 36.784C336.637 42.8279 301.14 55.7755 268.96 81.6954C218.911 121.133 195.359 179.117 195.359 237.711L195.4 256H297.872V237.67C297.458 183.895 338.027 157.76 338.027 157.76C352.545 147.963 374.344 136.983 398.714 137.917V101.505C371.316 101.216 342.966 109.914 316.394 128.409Z" fill="white"/>
</svg>

<svg xmlns="http://www.w3.org/2000/svg" fill="none" viewBox="0 0 497 256"><path fill="#fff" d="M226.472 80.761c-32.18-25.928-66.205-37.974-109.429-44.018C78.195 31.319 54.726 23.563 20.668 0L.094 30.583c30.509 22.654 59.09 33.89 97.814 40.58 27.399 4.737 48.825 5.067 77.332 20.173-5.609 7.267-10.721 17.966-13.823 25.234-14.229-8.417-35.208-14.866-63.22-15.147v36.42c13.617.57 25.844 2.241 42.323 9.384 20.078 8.698 34.058 21.728 34.058 21.728 16.032-56.222 51.894-88.194 51.894-88.194m89.922 47.648c-29.442 21.844-47.798 54.627-52.745 90.964h-30.22C249.991 87.21 371.638 75.329 394.744 72.063c41.71-5.878 71.607-18.784 102.066-41.439L476.245.034c-34.067 23.563-57.536 31.326-96.375 36.75-43.233 6.044-78.73 18.992-110.91 44.911-50.049 39.438-73.601 97.422-73.601 156.016L195.4 256h102.472v-18.33c-.414-53.775 40.155-79.91 40.155-79.91 14.518-9.797 36.317-20.777 60.687-19.843v-36.412c-27.398-.289-55.748 8.409-82.32 26.904"/></svg>
